X: 59
P: No. LIX.
M: C|
L: 1/8
K: G
V: 1
d2 |\
g3a (ga)b2 | g2d2 d2g2 | e3d (efgf) | Te4 d4 |\
g3a (ga)b2 | d3e d2B2 | (dB)(de) (de)(Bd) | {B2}A4 G2 |]
c2 |\
g2d2 (cBAG) | (edcB) A2Bc | d3e d2{c}B2 | TA4 G2 |]
V: 2 clef=bass middle=d
z2 |\
z2 |\
g2G2 g2a2 | b2g2 b2g2 | c'2c2 c'2b2 | c'2c2 g2z2 |\
g2f2 g2B2 | c2c2 d2GA | B3c B2G2 | c2d2 G2 |]

